X:1
T:Title
%%score [ 1 2 3 4 ]
L:1/8
Q:1/4=120
M:4/4
K:C
V:1 treble nm="MusicXML Part"
V:2 treble nm="MusicXML Part"
V:3 bass nm="MusicXML Part"
V:4 bass nm="MusicXML Part"
V:1
"^Die Sonn' hat sich mit ihrem Glanz gewendet""^BWV 297" D2 | F2 G2 !fermata!A2 d2 | %2
w: Die|Sonn' hat sich mit|
 c3 B (AB)"^Johann Sebastian Bach\n(1685-1750)" c2 | B4 !fermata!A2 d2 | %4
w: ih- rem Glanz * ge-|wen- det und,|
[M:4/4] d2 d2 !fermata!^c2 e2 | d2 A2 _B2 (AG) | G4 !fermata!F2 F2 | E2 E2 !fermata!D2 A2 | %8
w: was sie soll, auf|die- sen Tag voll *|en- det; die|dunk- le Nacht dringt|
 c2 c2 (GA) _B2 | !fermata!A2 A2 c2 d2 | !fermata!A2 c2 A2 (GF) | E3 D !fermata!D2 |] %12
w: a- llent- hal * ben|zu, bringt Men- schen,|Vieh und a- lle *|Welt zur Ruh.|
V:2
 A,2 | D2 (DE) !fermata!F2 A2 | A2 ^G2 (AG) A2 | (A^G/^F/ G2) !fermata!E2 A2 | %4
w: Die|Sonn' hat * sich mit|ih- rem Glanz * ge-|wen * * * det und,|
[M:4/4] (AG) B2 !fermata!A2 (AG) | F2 F2 G2 F2 | (FE/D/ E2) !fermata!C2 D2 | %7
w: was * sie soll, auf *|die- sen Tag voll-|en * * * det; die|
 D2 ^C2 !fermata!A,2 F2 | (FE) F2 E2 (FG) | !fermata!F2 F2 F2 F2 | !fermata!F2 G2 (GF/E/) D2 | %11
w: dunk- le Nacht dringt|a * llent- hal- ben *|zu, bringt Men- schen,|Vieh und a * * lle|
 D2 ^C2 !fermata!A,2 |] %12
w: Welt zur Ruh.|
V:3
 F,2 | A,2 _B,2 !fermata!D2 F2 | E2 (E>D) (CD) (EF) | (C E2 D) !fermata!^C2 D2 | %4
w: Die|Sonn' hat sich mit|ih- rem * Glanz * ge *|wen * * det und,|
[M:4/4] (DE) F2 !fermata!E2 A,2 | A,2 D2 (DC) C2 | (D_B,G,C/B,/) !fermata!A,2 B,2 | %7
w: was * sie soll, auf|die- sen Tag * voll-|en * * * * det; die|
 _B,2 (A,G,) !fermata!F,2 D2 | C2 C2 (CA,) (DC) | !fermata!C2 D2 C2 (C_B,) | %10
w: dunk- le * Nacht dringt|a- llent- hal * ben *|zu, bringt Men- schen, *|
 !fermata!C2 C2 C2 _B,2 | (_B,G,) (E,A,/G,/) !fermata!^F,2 |] %12
w: Vieh und a- lle|Welt * zur * * Ruh.|
V:4
 D,2 | D,2 G,,2 !fermata!D,,2 D,2 | A,2 E,2 F,2 (C,D,) | E,2 E,,2 !fermata!A,,2 F,2 | %4
w: Die|Sonn' hat sich mit|ih- rem Glanz ge *|wen * det und,|
[M:4/4] _B,2 (A,^G,) !fermata!A,2 ^C,2 | (D,E,) F,2 (F,E,) F,2 | (_B,,2 C,2) !fermata!F,,2 B,,2 | %7
w: was sie * soll, auf|die * sen Tag * voll-|en * det; die|
 G,,2 A,,2 !fermata!D,,2 D,2 | (A,,G,,) (A,,_B,,) C,2 (D,E,) | !fermata!F,2 D,2 A,,2 _B,,2 | %10
w: dunk- le Nacht dringt|a * llent * hal- ben *|zu, bringt Men- schen,|
 !fermata!F,,2 E,,2 F,,2 _B,,2 | G,,2 A,,2 !fermata!D,,2 |] %12
w: Vieh und a- lle|Welt zur Ruh.|

